X: 42236
T: We Are Dancer
R: reel
M: 4/4
K: Bminor
A,B,FB, EFAc|B2dB cF~F2|cdcA c2AG|FEFB AFED|
A,B,FB, EFAc|B2dB cF~F2|cdcA c2AG|1 FEFA B2FD:|2 FEFA B2Bd||
cdef|ad d/d/ abag|af~f2 edef|afed abag|af~f2 edef|
cd/c/ Be- efcd|B2AG ~B2AG|AF~F2 EFCD|1 A,B,B,D:|2 A,B,FB,||

